public/assets/mapIcon.svg

<svg width="55" height="47" viewBox="0 0 55 47" fill="none" xmlns="http://www.w3.org/2000/svg">
<g filter="url(#filter0_d)">
<g clip-path="url(#clip0)">
<path d="M53.1064 32.4006L52.2765 29.5891L52.4156 28.9295L52.1165 28.6929L52.2555 27.2189L52.7273 27.8103L52.3819 22.1919V18.6389L52.7441 16.0639L52.6051 13.6437L52.9042 10.3818L53.2791 7.48843L53.1022 1.36956L51.5351 1.01016L48.7296 1.16029L48.4937 2.74801L48.1272 2.1111L47.9292 2.44321L47.6596 1.44235L45.5912 2.17934L46.1936 3.24844L46.2652 3.45316L46.063 3.57599L43.5776 4.28569L42.9331 6.19187L42.6972 5.9644L42.4992 7.28371L42.0779 6.51032L41.9263 7.12903L40.949 5.54586L40.5361 4.87256L35.9529 5.09547L35.5611 5.11367C35.5611 5.11367 27.7426 4.96354 27.7089 4.96354L24.3094 4.70878L24.0145 5.10457L23.7786 5.05453L23.4037 5.39573L23.0962 5.01359L22.5906 6.04174L22.519 5.282L22.2242 5.34569L22.0725 5.15461L21.8829 5.26835V4.66783L15.1976 4.10827L12.6111 4.04457L12.4931 4.70423L12.3752 5.49127L11.975 5.9462L11.836 4.9226L11.4948 5.37753L11.3768 5.20011L11.1999 5.40483L11.0609 5.00904L10.5217 4.12191L8.66392 4.04457L3.97956 4.95444L2.37879 6.17367L2.13867 7.73864L2.89272 12.247L3.06965 14.6082L3.56252 13.9985L3.79842 15.013L4.16491 14.9221L3.33083 17.042L3.92901 19.6306L4.01326 22.0691L4.2955 26.4228L4.57774 26.2454L4.82628 26.5229L4.63672 26.9551L4.90632 27.1052L4.64936 27.9559L4.97794 27.8422L4.62408 29.2752L4.99057 32.892L4.64936 36.586L4.61566 38.6423L4.99057 38.0828L5.21384 38.9608L5.26018 39.5431L5.52978 39.211L5.45817 40.1527L4.85998 40.776L5.1001 42.2864L5.2012 43.4692L6.1069 44.2426L7.72874 44.6748L10.0456 43.9514L11.8444 42.6685L11.5748 41.9406L16.4572 41.7677L18.0748 41.7222L18.9973 40.5622L19.3343 40.9671L19.5745 40.776L19.743 41.0125L20.3243 40.3574L20.6107 41.5767L20.9225 41.6267L20.9604 41.8496L22.0556 41.9679L23.5132 41.9224C23.5132 41.9224 25.6953 41.9679 25.7248 41.9679C25.7543 41.9679 29.3097 41.9952 29.3097 41.9952L29.6972 41.1172L29.9837 41.4038L30.1438 41.2719L30.2828 41.4766L30.6071 41.1354L30.8262 41.9406L31.0789 41.7177L31.2685 42.1817L34.3858 42.0316L36.7322 42.0998L37.6295 40.0572L37.659 41.2582L38.0044 40.8761L38.1982 41.6722L38.3161 41.4584L38.4846 42.25H39.5799L43.7503 42.0998L44.3696 42.0725L46.1304 41.9952L49.4204 41.4538L53.1022 40.6577L53.9953 39.5067V36.1538L53.1064 32.4006Z" fill="#DFC158"/>
<path d="M52.8628 39.916L51.9697 41.067L48.2879 41.8631L44.9979 42.4045L42.6136 42.5046L38.4432 42.6547H37.3479L37.1794 41.8631L37.0615 42.077L36.8677 41.2808L36.5223 41.663L36.4928 40.4619L35.5871 42.5137L33.2407 42.4455L30.1234 42.5956L29.9338 42.1316L29.6811 42.3545L29.462 41.5492L29.1376 41.8904L28.9986 41.6857L28.8385 41.8177L28.5521 41.531L28.1645 42.4091C28.1645 42.4091 24.6091 42.3818 24.5796 42.3818C24.5502 42.3818 22.3681 42.3363 22.3681 42.3363L20.9105 42.3818L19.8152 42.2635L19.7773 42.0406L19.4656 41.9905L19.1791 40.7713L18.5978 41.4264L18.4293 41.1898L18.1892 41.3809L17.8522 40.976L16.9296 42.1361L15.312 42.1816L13.9134 42.1361L12.5612 42.2635L10.3117 42.3636L7.6578 35.2302L6.73103 30.0349L6.63836 23.875L7.20284 17.4241L7.1565 10.873L1.46533 9.24436L1.00195 8.14797L1.24207 6.57845L2.84284 5.35922L4.79326 4.99528L7.52721 4.45391L9.38495 4.53124L9.92415 5.41837L10.0632 5.81416L10.2401 5.60944L10.358 5.78686L10.6993 5.33193L10.8383 6.36008L11.2385 5.90515L11.3564 5.11811L11.4744 4.45846L14.0609 4.52215L18.1513 4.87699L20.7504 5.08171V5.67768L20.94 5.56395L21.0916 5.75502L21.3865 5.69133L21.4581 6.45107L21.9636 5.42292L22.2712 5.80506L22.6461 5.46386L22.882 5.5139L23.1769 5.11811C23.1769 5.11811 26.5385 5.37287 26.5764 5.37287C26.6143 5.37287 34.4286 5.523 34.4286 5.523L39.3994 5.28189L39.8123 5.95519L40.1071 6.75587L40.7643 7.64299L40.9412 6.91965L41.3625 7.69304L41.5605 6.37373L41.7964 6.6012L42.4409 4.69502L44.9221 3.98532L45.3434 3.73056L49.5517 9.78573L50.1625 24.7167L50.4911 34.4159L52.8628 39.916Z" fill="#FACABC"/>
<path d="M12.359 42.2769L10.3117 42.3634L5.85061 40.1024L4.83538 11.7145L1.00195 8.14776L1.19994 6.53275L2.80072 5.31807L7.52721 4.4537L9.38494 4.53104L9.92415 5.41816L10.0674 5.81395L10.2401 5.60923L10.358 5.78665L10.6993 5.33172L10.8425 6.35987L11.2427 5.90039L11.4365 4.4082L14.0609 4.51739L20.7926 5.03146L20.7546 5.62743L20.94 5.55919L21.0916 5.75026L21.3865 5.68657L21.4581 6.44631L21.9636 5.41816L22.2669 5.8003L22.6461 5.40906L22.8778 5.50914L23.1726 5.06786L26.5722 5.36812" fill="#FFDD66"/>
<path d="M26.573 5.36813L34.4252 5.51826L34.817 5.50006L37.7068 7.85662L23.7843 25.681L15.317 42.186L10.3125 42.3634" fill="#FFDD66"/>
<path d="M2.80426 14.044L3.03595 15.0585L3.40245 14.9721L2.56836 17.0921L3.16654 19.6806L3.25079 22.1191L3.53303 26.4728L3.81528 26.2954L4.0596 26.5729L3.87425 27.0051L4.14386 27.1598L3.88268 28.0105L4.21547 27.8968L3.86161 29.3298L4.22389 32.9465L3.88268 36.6406L3.84898 38.6969L4.22389 38.1419L4.44716 39.0154L4.49771 39.6022L4.76731 39.2701L4.6957 40.2073L4.09752 40.8305L4.33763 42.3409L4.43873 43.5238L5.34022 44.2971L6.96627 44.7293L9.27896 44.006L11.0777 42.7231L9.62018 38.7742L8.72712 35.5897L8.17527 31.145L7.78772 25.9405L7.81299 21.1637L7.83406 15.9729L7.78772 12.5336L7.93937 9.28084L7.84669 7.78411L7.29485 6.86969L6.71773 6.36016L5.26018 6.11905H4.27445L3.67626 6.41021L3.53725 6.66497L3.89953 8.84411L5.05798 8.47106" fill="#D5B751"/>
<path d="M11.6185 38.9746L10.9824 37.9464L11.3026 36.7636L10.7002 35.8128V34.0977L10.2789 33.529L10.1357 32.7283V31.7775L10.8771 32.3098L11.3363 31.4318L11.6185 31.0132L10.8771 30.5583L10.5233 30.7585L10.8771 29.6803L10.3126 29.0343L10.5738 27.5603H9.77344L10.102 26.423L9.93773 26.1636L10.696 23.4704H10.3843L10.7002 22.5606L10.696 21.8964L10.7002 21.3914L10.359 20.7545L11.0414 20.0448H11.8881L12.2167 19.0303L12.4316 18.1386L13.1603 18.0112H13.9818L14.7358 18.1386L15.6289 18.0112L16.4503 17.4289L16.8716 16.7328L22.1626 19.4625L25.9497 25.4039L27.0786 32.792L22.8913 39.3658L19.8204 40.8671L19.0369 40.4713L16.0038 40.8671L11.6185 38.9746Z" fill="#C6AA48"/>
<path d="M19.819 42.2725L19.7811 42.0496L19.4694 41.9996L19.1829 40.7803L18.6016 41.4354L18.4331 41.1989L18.193 41.3899L17.856 40.9851L16.9334 42.1451L15.3158 42.1906L13.9172 42.1451L12.3586 42.2816L12.9357 40.7803L12.2069 40.1434L11.6172 38.9742C11.6172 38.9742 12.0047 38.6694 12.1101 38.6694C12.2154 38.6694 13.3696 39.2427 13.3696 39.2427L14.7555 39.6384L15.7918 39.6111C15.7918 39.6111 16.4869 40.0661 16.5206 40.0797C16.5543 40.0934 17.9065 40.0797 17.9065 40.0797L19.0945 39.5611L19.5157 40.0069L20.1518 40.5392L20.0465 41.0715L19.819 42.2725Z" fill="#EBCC5E"/>
<path d="M24.3488 31.3178L23.8222 32.9555L23.0808 33.4514L22.1288 34.8617V35.8899L21.4211 36.6132V37.7915L20.469 38.3647L20.646 39.916L20.0478 40.3846V41.067L19.8203 42.2726L20.9156 42.3909L22.3731 42.3454L28.1696 42.4136L28.5572 41.5402L28.8478 41.8222L29.0037 41.6903L29.1469 41.895L29.4713 41.5493L29.6861 42.359L29.9389 42.1361L30.1284 42.6002L33.2415 42.4455L35.5879 42.5137L36.4894 40.4711L36.5189 41.6721L36.8643 41.2899L37.0581 42.0861L37.176 41.8677L37.3446 42.6593L43.2295 42.4819L44.4511 38.7059L34.7875 32.7417L31.7924 29.539L27.4619 27.56L24.3488 31.3178Z" fill="#EBCC5E"/>
<path d="M25.502 14.94L25.0218 14.5988L24.352 14.94L23.3662 15.8544H21.4622L20.4764 16.8461C20.4764 16.8461 18.9936 17.0372 18.8546 17.0372C18.7156 17.0372 16.8789 16.7324 16.8789 16.7324L17.0895 17.9152L17.1232 19.0981L17.8941 19.8897L18.0711 20.9951L19.0947 22.4691L20.2574 22.824L21.7739 22.0642L22.2668 22.4691L22.6543 24.1979L23.7833 25.6855L23.9223 26.9411L24.5205 27.0913L24.6595 29.2613L24.3056 30.4032L24.3393 31.3176L25.0808 31.5087H26.3866L26.9216 31.0128L27.7599 30.3668L27.9706 30.758L27.7936 31.5087L27.8273 32.4731L27.6504 33.565L28.9563 34.0609L29.8367 35.2437H30.9109L32.2505 34.5567L33.944 33.6423L34.2262 35.2437L35.0013 36.654L35.212 38.0233L36.1303 38.4055L37.4699 39.0924L38.3503 38.6375L39.4456 39.2471H40.0101L43.9825 36.7313L44.2774 31.4359L40.8231 20.9633L35.5279 14.7489C35.5279 14.7489 32.8487 13.6434 32.4949 13.607C32.141 13.5706 25.502 14.94 25.502 14.94Z" fill="#D4B751"/>
<path d="M39.8072 5.95055L39.3944 5.27725L34.8154 5.50017L34.9291 6.56017L34.8154 7.24712L34.293 7.60197H33.4716L33.0714 8.00686H32.0351L31.5885 8.36626L31.1673 8.66651L29.8488 8.46634L29.2632 7.87948L27.9447 7.65201L26.9295 6.97416H25.9227L25.1939 7.80669L26.0659 8.54368L26.1122 9.25338L26.9295 9.65827L27.9236 10.3452L28.981 11.155H29.7308L29.6381 12.3515L29.2169 12.7063L28.5092 13.0111L27.8983 12.8565L27.4602 13.0111L27.0306 11.7646L25.3582 11.4098L24.0649 10.6L23.0539 10.7501L22.7717 9.48084V8.99861L22.1145 8.82119L21.2931 8.56643L20.282 9.25338L19.8819 9.63552V10.2451L19.5996 10.7501L20.1852 11.2824L20.0925 11.942L20.5643 12.3242L21.2678 12.7837L22.1861 12.7564L22.2577 13.2659H23.947L24.4188 12.9611L25.1475 13.5707H25.9479L27.0769 13.9483L26.9295 14.4305H26.1333L25.5014 14.9401L26.5335 15.4723L29.7013 16.0819L31.6391 16.414L32.4353 17.7606L31.4032 19.5622L31.2389 20.3765L32.7891 20.6677L33.3283 19.867L34.4826 19.7669L35.4472 20.3993L35.5146 20.8587L36.9259 21.6048L43.9819 18.2156L42.2884 9.96307L39.8072 5.95055Z" fill="#EBCC5E"/>
<path d="M37.8652 30.758L38.9141 31.0901L39.9714 31.9272L42.124 32.1547V33.2237L42.5453 34.2519L43.0929 34.5931L42.9329 35.3164L42.1957 36.0398L41.8039 37.3363L41.0667 38.0233L40.1147 38.7466L40.0093 39.238L41.1004 39.9158L41.5259 40.6483L42.6169 41.4853L43.0929 42.2496L43.2277 42.4816L44.9928 42.4043L48.2828 41.8629L51.9688 41.0668L52.8619 39.9158L51.9983 37.4364L49.2559 22.9877L45.2624 22.4691L40.1231 26.1905L37.7051 29.4751" fill="#FFDD66"/>
<path d="M39.8072 5.95061L39.6555 7.00605L40.3127 8.27987L40.0936 9.69471L39.1332 10.6364L39.5039 11.5099L39.2848 12.4516L39.3522 13.3023L39.5502 14.1758L38.674 14.8855L38.9562 15.8045L39.1753 16.5824C39.1753 16.5824 38.7835 17.2193 38.674 17.3376C38.5645 17.4559 38.4128 18.5159 38.4128 18.5159L38.2822 19.3166L37.7346 19.7169L37.4271 21.3911L36.9258 21.6049L37.3639 22.169L38.4128 23.1926L39.0236 23.5838L39.1332 24.4801L38.9141 25.2125L38.2359 25.4491L38.7835 26.0632L38.1938 26.7229L37.6251 27.7601L37.1238 28.7974L37.8652 30.7536L38.6192 29.1249L39.7019 28.8884L40.3127 27.7328L40.8772 27.651L42.0272 26.5591L42.4821 26.3908L43.2825 25.6311L44.2219 24.985L45.1487 24.1207L45.8522 24.0206L46.3872 23.693L49.2559 22.9879L48.6577 5.95061L45.3467 3.73053L44.9254 3.98529L42.44 4.69499L41.7955 6.60116L41.5596 6.3737L41.3616 7.693L40.9403 6.91962L40.7634 7.64296L39.8072 5.95061Z" fill="#C6AA48"/>
<path d="M44.4492 2.58865L46.5218 1.85165L46.7914 2.85251L46.9894 2.52495L47.3559 3.15731L47.5918 1.56959L50.3974 1.41946L51.9644 1.77431L52.1414 7.89318L51.7622 10.7911L51.4674 14.053L51.6064 16.4732L51.2441 19.0436V22.6012L51.5895 28.2197L51.1219 27.6282L50.9787 29.1022L51.2778 29.3388L51.1346 29.9984L51.9686 32.8099L52.8617 36.5677V39.916L51.3873 38.5649L50.9618 38.4284L50.6501 37.4776L50.3679 37.7187L50.2289 37.6641L50.0224 38.0235L49.8371 37.3957L49.3021 38.2601L48.1099 38.3783L47.3264 38.7832L47.4359 37.3456L48.3458 31.0311L48.3164 23.6931L47.5792 16.032L47.2632 12.9339L47.5623 11.2097L47.3601 10.3771L46.9978 11.105L46.8883 9.8221L45.8394 5.95971L45.0558 3.65774L44.4492 2.58865Z" fill="#D4B751"/>
<path d="M6.91638 7.23352L6.28029 7.98416L4.67952 8.83489L3.18827 9.31712L1.35581 8.55283L1.00195 8.14794L1.756 12.6563L1.92872 15.0174L2.4258 14.4078L2.65749 15.4223L3.02398 15.3359L2.18989 17.4559L2.78808 20.0445L2.87233 22.4829L3.15457 26.8366L3.43681 26.6592L3.68114 26.9367L3.49579 27.3689L3.76539 27.5236L3.50421 28.3743L3.837 28.2606L3.48315 29.6936L3.84543 33.3103L3.50421 37.0044L3.47051 39.0607L3.84543 38.5057L4.0687 39.3792L4.11925 39.966L4.38885 39.6339L4.31724 40.5711L3.71905 41.1944L3.95917 42.7047L4.06027 43.8876L4.96176 44.661L6.58781 45.0931L8.9005 44.3698L10.6993 43.0869L9.24172 39.1381L8.34865 35.9535L7.79681 31.5088L7.40925 26.3044L7.43453 21.5276L7.45559 16.3368L7.40925 12.8975L7.56091 9.64467L7.46823 8.14794L6.91638 7.23352Z" fill="#DFC158"/>
<path d="M47.3281 38.7831L47.543 39.4063L49.3544 40.0159H51.0605L51.1995 39.5201L51.3511 38.551L50.9636 38.4282L50.6518 37.4774L50.3696 37.7185L50.2306 37.6639L50.0242 38.0233L49.8388 37.3955L49.3038 38.2599L48.1117 38.3782L47.3281 38.7831Z" fill="#EBCC5E"/>
<path d="M6.9158 7.2337L6.33868 6.72418L4.88114 6.48306H3.8954L3.29722 6.77422L3.1582 7.02898L3.52048 9.20812L4.67894 8.83507L6.27971 7.98435L6.9158 7.2337Z" fill="#EBCC5E"/>
</g>
</g>
<defs>
<filter id="filter0_d" x="0.00195312" y="0.0100403" width="54.9982" height="46.0831" filterUnits="userSpaceOnUse" color-interpolation-filters="sRGB">
<feFlood flood-opacity="0" result="BackgroundImageFix"/>
<feColorMatrix in="SourceAlpha" type="matrix" values="0 0 0 0 0 0 0 0 0 0 0 0 0 0 0 0 0 0 127 0"/>
<feOffset/>
<feGaussianBlur stdDeviation="0.5"/>
<feColorMatrix type="matrix" values="0 0 0 0 0 0 0 0 0 0 0 0 0 0 0 0 0 0 0.25 0"/>
<feBlend mode="normal" in2="BackgroundImageFix" result="effect1_dropShadow"/>
<feBlend mode="normal" in="SourceGraphic" in2="effect1_dropShadow" result="shape"/>
</filter>
<clipPath id="clip0">
<rect width="52.9982" height="44.0831" fill="white" transform="translate(1.00195 1.01004)"/>
</clipPath>
</defs>
</svg>

<svg width="55" height="47" fill="none" xmlns="http://www.w3.org/2000/svg"><g filter="url(#filter0_d)"><g clip-path="url(#clip0)"><path d="M53.106 32.4l-.83-2.81.14-.66-.3-.237.14-1.474.471.591-.345-5.618v-3.553l.362-2.575-.139-2.42.3-3.262.374-2.894-.177-6.118-1.567-.36-2.805.15-.236 1.588-.367-.637-.198.332-.27-1-2.068.736.603 1.07.071.204-.202.123-2.485.71-.645 1.906-.236-.228-.198 1.32-.421-.774-.152.619-.977-1.583-.413-.673-4.583.222-.392.019-7.852-.15-3.4-.255-.294.396-.236-.05-.375.34-.308-.381-.505 1.028-.072-.76-.295.064-.151-.191-.19.113v-.6l-6.685-.56-2.587-.063-.118.66-.118.786-.4.455-.139-1.023-.341.455-.118-.178-.177.205-.14-.396-.538-.887-1.858-.077-4.684.91-1.601 1.219-.24 1.565.754 4.508.177 2.361.493-.61.235 1.015.367-.09-.834 2.119.598 2.589.084 2.438.282 4.354.283-.178.248.278-.19.432.27.15-.257.85.329-.113-.354 1.433.367 3.617-.342 3.694-.033 2.056.375-.56.223.879.046.582.27-.332-.072.942-.598.623.24 1.51.101 1.183.906.774 1.622.432 2.317-.724 1.798-1.282-.27-.728 4.883-.173 1.618-.046.922-1.16.337.405.24-.191.169.236.581-.655.287 1.22.311.05.038.223 1.096.118 1.457-.046 2.212.046 3.585.027.387-.878.287.287.16-.132.139.205.324-.342.22.806.252-.223.19.464 3.117-.15 2.346.068.898-2.043.029 1.201.345-.382.194.796.118-.214.169.792h1.095l4.17-.15.62-.028 1.76-.077 3.29-.541 3.682-.796.893-1.151v-3.353l-.889-3.753z" fill="#DFC158"/><path d="M52.863 39.916l-.893 1.151-3.682.796-3.29.541-2.384.1-4.17.15h-1.096l-.169-.79-.117.213-.194-.796-.346.382-.03-1.201-.905 2.052-2.346-.069-3.118.15-.19-.463-.252.223-.219-.806-.324.341-.14-.204-.16.132-.286-.287-.387.878-3.585-.027-2.212-.046-1.457.046-1.096-.118-.038-.223-.311-.05-.287-1.22-.581.655-.169-.236-.24.19-.337-.404-.922 1.16-1.618.046-1.399-.046-1.352.127-2.25.1-2.653-7.133-.927-5.195-.093-6.16.565-6.45-.046-6.552-5.692-1.629-.463-1.096.24-1.57 1.6-1.219 1.951-.364 2.734-.541 1.858.077.54.887.138.396.177-.205.118.178.341-.455.14 1.028.4-.455.117-.787.118-.66 2.587.064 4.09.355 2.6.205v.596l.189-.114.152.191.295-.064.071.76.506-1.028.307.382.375-.341.236.05.295-.396s3.361.255 3.4.255l7.852.15 4.97-.241.413.673.295.8.657.888.177-.723.421.773.198-1.32.236.228.645-1.906 2.481-.71.421-.254 4.209 6.055.61 14.93.33 9.7 2.37 5.5z" fill="#FACABC"/><path d="M12.359 42.277l-2.047.086-4.461-2.26-1.016-28.389-3.833-3.566.198-1.615 1.6-1.215 4.727-.864 1.858.077.54.887.142.396.173-.205.118.178.341-.455.143 1.028.4-.46.194-1.492 2.625.11 6.732.513-.038.596.185-.068.152.191.295-.063.071.76.506-1.029.303.382.38-.39.23.1.296-.442 3.4.3" fill="#FD6"/><path d="M26.573 5.368l7.852.15.392-.018 2.89 2.357L23.784 25.68l-8.467 16.505-5.005.177" fill="#FD6"/><path d="M2.804 14.044l.232 1.014.366-.086-.834 2.12.599 2.589.084 2.438.282 4.354.282-.178.245.278-.186.432.27.155-.261.85.332-.113-.353 1.433.362 3.617-.341 3.694-.034 2.056.375-.555.223.873.05.587.27-.332-.071.937-.598.623.24 1.51.1 1.184.902.773 1.626.432 2.313-.723 1.799-1.283-1.458-3.949-.893-3.184-.552-4.445-.387-5.204.025-4.777.021-5.191-.046-3.44.151-3.252-.092-1.497-.552-.914-.577-.51L5.26 6.12h-.986l-.598.291-.139.255.363 2.18 1.158-.374" fill="#D5B751"/><path d="M11.618 38.975l-.636-1.029.32-1.182-.602-.951v-1.715l-.421-.569-.143-.8v-.951l.741.532.46-.878.281-.419-.74-.455-.355.2.354-1.078-.564-.646.26-1.474h-.8l.329-1.137-.164-.26.758-2.693h-.312l.316-.91-.004-.664.004-.505-.341-.636.682-.71h.847l.329-1.015.215-.891.728-.128h.822l.754.128.893-.128.821-.582.422-.696 5.29 2.73 3.788 5.94 1.129 7.389-4.188 6.574-3.07 1.501-.784-.396-3.033.396-4.386-1.892z" fill="#C6AA48"/><path d="M19.819 42.273l-.038-.223-.312-.05-.286-1.22-.581.655-.169-.236-.24.19-.337-.404-.923 1.16-1.617.046-1.399-.046-1.558.137.577-1.502-.73-.637-.589-1.169s.388-.305.493-.305c.105 0 1.26.574 1.26.574l1.386.395 1.036-.027s.695.455.729.469c.033.013 1.386 0 1.386 0l1.188-.519.42.446.637.532-.105.532-.228 1.202z" fill="#EBCC5E"/><path d="M24.349 31.318l-.527 1.637-.741.496-.952 1.41v1.029l-.708.723v1.178l-.952.574.177 1.551-.598.469v.682l-.228 1.206 1.096.118 1.457-.046 5.797.069.387-.874.29.282.157-.132.143.205.324-.346.215.81.253-.223.19.464 3.113-.154 2.346.068.901-2.043.03 1.201.345-.382.194.796.118-.218.169.791 5.885-.177 1.221-3.776-9.663-5.964-2.996-3.203-4.33-1.979-3.113 3.758z" fill="#EBCC5E"/><path d="M25.502 14.94l-.48-.341-.67.341-.986.914h-1.904l-.986.992s-1.482.191-1.621.191c-.14 0-1.976-.305-1.976-.305l.21 1.183.034 1.183.771.792.177 1.105 1.024 1.474 1.162.355 1.517-.76.493.405.387 1.729 1.13 1.488.138 1.255.598.15.14 2.17-.354 1.142.033.915.742.19h1.306l.535-.495.838-.646.21.391-.176.75.033.965-.177 1.092 1.306.496.88 1.183h1.075l1.34-.687 1.693-.915.282 1.602.775 1.41.211 1.37.918.382 1.34.686.88-.454 1.096.61h.564l3.973-2.517.294-5.295-3.454-10.473-5.295-6.214s-2.68-1.106-3.033-1.142c-.354-.036-6.993 1.333-6.993 1.333z" fill="#D4B751"/><path d="M39.807 5.95l-.413-.673-4.579.223.114 1.06-.114.687-.522.355h-.821l-.4.405h-1.037l-.446.36-.422.3-1.318-.2-.586-.588-1.318-.227-1.015-.678h-1.007l-.73.833.873.737.046.71.818.404.994.687 1.057.81h.75l-.093 1.197-.421.354-.708.305-.61-.154-.439.154-.43-1.246-1.672-.355-1.293-.81-1.011.15-.282-1.27V9l-.657-.178-.822-.255-1.011.687-.4.383v.61l-.282.504.585.532-.092.66.471.382.704.46.918-.028.072.51h1.689l.472-.305.729.61h.8l1.129.377-.148.482h-.796l-.632.51 1.032.532 3.168.61 1.938.332.796 1.347-1.032 1.801-.164.814 1.55.292.54-.801 1.154-.1.964.632.068.46 1.41.746 7.057-3.39-1.694-8.252-2.48-4.012z" fill="#EBCC5E"/><path d="M37.865 30.758l1.05.332 1.056.837 2.153.228v1.069l.421 1.028.548.341-.16.723-.737.724-.392 1.296-.737.687-.952.724-.106.491 1.091.678.426.732 1.09.837.477.765.135.232 1.765-.078 3.29-.541 3.686-.796.893-1.151-.864-2.48-2.742-14.448-3.994-.519-5.139 3.721-2.418 3.285" fill="#FD6"/><path d="M39.807 5.95l-.151 1.056.657 1.274-.22 1.415-.96.941.37.874-.218.942.067.85.198.874-.876.71.282.919.22.777s-.393.637-.502.756c-.11.118-.261 1.178-.261 1.178l-.13.8-.548.4-.308 1.675-.501.214.438.564 1.049 1.024.61.39.11.897-.219.732-.678.237.547.614-.59.66-.568 1.037-.501 1.037.741 1.957.754-1.63 1.083-.236.61-1.155.565-.082 1.15-1.092.455-.168.8-.76.94-.646.927-.864.703-.1.535-.328 2.869-.705-.598-17.037-3.311-2.22-.422.254-2.485.71-.645 1.906-.235-.227-.198 1.319-.422-.773-.177.723-.956-1.692z" fill="#C6AA48"/><path d="M44.45 2.589l2.072-.737.27 1 .197-.327.367.632.236-1.587 2.805-.15 1.567.354.177 6.12-.379 2.897-.295 3.262.14 2.42-.363 2.57v3.558l.346 5.619-.468-.592-.143 1.474.299.237-.143.66.834 2.81.893 3.759v3.348l-1.475-1.351-.425-.137-.312-.95-.282.24-.14-.054-.206.36-.185-.628-.535.864-1.192.118-.784.405.11-1.437.91-6.315-.03-7.338-.737-7.661-.316-3.098.3-1.724-.203-.833-.362.728-.11-1.283L45.84 5.96l-.783-2.302-.607-1.07z" fill="#D4B751"/><path d="M6.916 7.234l-.636.75-1.6.85-1.492.483-1.832-.764-.354-.405.754 4.508.173 2.361.497-.61.231 1.015.367-.086-.834 2.12.598 2.588.084 2.439.283 4.354.282-.178.244.278-.185.432.27.155-.262.85.333-.113-.354 1.433.362 3.616-.34 3.694-.034 2.057.374-.555.224.873.05.587.27-.332-.072.937-.598.623.24 1.51.101 1.184.902.773 1.626.432L8.9 44.37l1.8-1.283-1.458-3.949-.893-3.184-.552-4.445-.388-5.205.026-4.776.02-5.191-.046-3.44.152-3.252-.093-1.497-.552-.914z" fill="#DFC158"/><path d="M47.328 38.783l.215.623 1.811.61h1.706l.14-.496.151-.969-.387-.123-.312-.95-.282.24-.14-.054-.206.36-.185-.629-.535.865-1.192.118-.784.405zM6.916 7.234l-.577-.51-1.458-.24h-.986l-.598.29-.139.255.362 2.18 1.159-.374 1.6-.85.637-.751z" fill="#EBCC5E"/></g></g><defs><clipPath id="clip0"><path fill="#fff" transform="translate(1.002 1.01)" d="M0 0h52.998v44.083H0z"/></clipPath><filter id="filter0_d" x=".002" y=".01" width="54.998" height="46.083" filterUnits="userSpaceOnUse" color-interpolation-filters="sRGB"><feFlood flood-opacity="0" result="BackgroundImageFix"/><feColorMatrix in="SourceAlpha" values="0 0 0 0 0 0 0 0 0 0 0 0 0 0 0 0 0 0 127 0"/><feOffset/><feGaussianBlur stdDeviation=".5"/><feColorMatrix values="0 0 0 0 0 0 0 0 0 0 0 0 0 0 0 0 0 0 0.25 0"/><feBlend in2="BackgroundImageFix" result="effect1_dropShadow"/><feBlend in="SourceGraphic" in2="effect1_dropShadow" result="shape"/></filter></defs></svg>
